assets/img/braze_icons/settings-03.svg

<svg fill="none" height="24" viewBox="0 0 24 24" width="24" xmlns="http://www.w3.org/2000/svg"><g clip-rule="evenodd" fill="#801ed7" fill-rule="evenodd"><path d="m14.6713 3h-9.1713c-1.933 0-3.5 1.567-3.5 3.5s1.567 3.5 3.5 3.5h9.1713c.7729.6254 1.7571 1 2.8287 1 2.4853 0 4.5-2.01472 4.5-4.5s-2.0147-4.5-4.5-4.5c-1.0716 0-2.0558.3746-2.8287 1zm-1.4152 2c-.1659.46917-.2561.97405-.2561 1.5s.0902 1.03083.2561 1.5h-7.7561c-.82843 0-1.5-.67157-1.5-1.5s.67157-1.5 1.5-1.5z"/><path d="m6.5 13c1.07165 0 2.0558.3746 2.82867 1h9.17133c1.933 0 3.5 1.567 3.5 3.5s-1.567 3.5-3.5 3.5h-9.17133c-.77287.6254-1.75702 1-2.82867 1-2.48528 0-4.5-2.0147-4.5-4.5s2.01472-4.5 4.5-4.5zm4.5 4.5c0-.526-.0902-1.0308-.2561-1.5h7.7561c.8284 0 1.5.6716 1.5 1.5s-.6716 1.5-1.5 1.5h-7.7561c.1659-.4692.2561-.974.2561-1.5z"/></g></svg>

<svg width="24" height="24" viewBox="0 0 24 24" fill="none" xmlns="http://www.w3.org/2000/svg">
<path fill-rule="evenodd" clip-rule="evenodd" d="M14.6713 3H5.5C3.567 3 2 4.567 2 6.5C2 8.433 3.567 10 5.5 10H14.6713C15.4442 10.6254 16.4284 11 17.5 11C19.9853 11 22 8.98528 22 6.5C22 4.01472 19.9853 2 17.5 2C16.4284 2 15.4442 2.3746 14.6713 3ZM13.2561 5C13.0902 5.46917 13 5.97405 13 6.5C13 7.02595 13.0902 7.53083 13.2561 8H5.5C4.67157 8 4 7.32843 4 6.5C4 5.67157 4.67157 5 5.5 5H13.2561Z" fill="#801ED7"/>
<path fill-rule="evenodd" clip-rule="evenodd" d="M6.5 13C7.57165 13 8.5558 13.3746 9.32867 14H18.5C20.433 14 22 15.567 22 17.5C22 19.433 20.433 21 18.5 21H9.32867C8.5558 21.6254 7.57165 22 6.5 22C4.01472 22 2 19.9853 2 17.5C2 15.0147 4.01472 13 6.5 13ZM11 17.5C11 16.974 10.9098 16.4692 10.7439 16H18.5C19.3284 16 20 16.6716 20 17.5C20 18.3284 19.3284 19 18.5 19H10.7439C10.9098 18.5308 11 18.026 11 17.5Z" fill="#801ED7"/>
</svg>
